TPFinal/static/svgs/solid/right-to-bracket.svg

<svg xmlns="http://www.w3.org/2000/svg" viewBox="0 0 512 512"><!--! Font Awesome Free 6.1.1 by @fontawesome - https://fontawesome.com License - https://fontawesome.com/license/free (Icons: CC BY 4.0, Fonts: SIL OFL 1.1, Code: MIT License) Copyright 2022 Fonticons, Inc. --><path d="M344.7 238.5l-144.1-136C193.7 95.97 183.4 94.17 174.6 97.95C165.8 101.8 160.1 110.4 160.1 120V192H32.02C14.33 192 0 206.3 0 224v64c0 17.68 14.33 32 32.02 32h128.1v72c0 9.578 5.707 18.25 14.51 22.05c8.803 3.781 19.03 1.984 26-4.594l144.1-136C354.3 264.4 354.3 247.6 344.7 238.5zM416 32h-64c-17.67 0-32 14.33-32 32s14.33 32 32 32h64c17.67 0 32 14.33 32 32v256c0 17.67-14.33 32-32 32h-64c-17.67 0-32 14.33-32 32s14.33 32 32 32h64c53.02 0 96-42.98 96-96V128C512 74.98 469 32 416 32z"/></svg>

<svg xmlns="http://www.w3.org/2000/svg" viewBox="0 0 512 512"><!--! Font Awesome Free 6.2.1 by @fontawesome - https://fontawesome.com License - https://fontawesome.com/license/free (Icons: CC BY 4.0, Fonts: SIL OFL 1.1, Code: MIT License) Copyright 2022 Fonticons, Inc. --><path d="M352 96h64c17.7 0 32 14.3 32 32V384c0 17.7-14.3 32-32 32H352c-17.7 0-32 14.3-32 32s14.3 32 32 32h64c53 0 96-43 96-96V128c0-53-43-96-96-96H352c-17.7 0-32 14.3-32 32s14.3 32 32 32zm-7.5 177.4c4.8-4.5 7.5-10.8 7.5-17.4s-2.7-12.9-7.5-17.4l-144-136c-7-6.6-17.2-8.4-26-4.6s-14.5 12.5-14.5 22v72H32c-17.7 0-32 14.3-32 32v64c0 17.7 14.3 32 32 32H160v72c0 9.6 5.7 18.2 14.5 22s19 2 26-4.6l144-136z"/></svg>
